docs/img/questions/stars-1.svg

<svg width="549" height="683" fill="none" xmlns="http://www.w3.org/2000/svg"><path d="M133.654 184.563c1.316-14.211 18.173-20.956 28.928-11.575l87.727 76.518a22.507 22.507 0 0012.196 5.394l98.863 11.473c14.641 1.699 20.752 19.63 10.196 29.917l-68.021 66.283a22.498 22.498 0 00-6.638 13.439l-14.363 119.925c-1.742 14.545-19.515 20.641-29.817 10.226l-81.548-82.441a22.5 22.5 0 00-15.141-6.661l-99.563-3.787c-15.149-.576-22.45-18.828-11.877-29.692l72.508-74.506a22.503 22.503 0 006.28-13.617l10.27-110.896z" stroke="#fff" stroke-opacity=".3" stroke-width="5"/><path d="M162.533 237.342c.564-6.091 7.789-8.981 12.398-4.961l60.158 52.471a12.499 12.499 0 006.775 2.996l69.059 8.015c6.275.728 8.894 8.413 4.369 12.821l-47.808 46.587a12.509 12.509 0 00-3.688 7.467l-9.873 82.438c-.746 6.234-8.364 8.846-12.779 4.383l-56.318-56.936a12.505 12.505 0 00-8.412-3.7l-70.158-2.668c-6.493-.247-9.621-8.07-5.09-12.726l50.801-52.201a12.503 12.503 0 003.489-7.565l7.077-76.421z" stroke="#fff" stroke-opacity=".6" stroke-width="5"/><path d="M115.186 135.03c1.316-14.21 18.174-20.955 28.929-11.574L262.57 226.775a22.507 22.507 0 0012.196 5.394l135.876 15.769c14.642 1.699 20.753 19.63 10.196 29.917l-94.042 91.639a22.497 22.497 0 00-6.637 13.439L300.72 545.244c-1.742 14.545-19.516 20.641-29.818 10.226L160.04 443.393a22.498 22.498 0 00-15.141-6.66L6.908 431.484c-15.148-.576-22.449-18.828-11.876-29.692l99.942-102.696a22.498 22.498 0 006.279-13.618l13.933-150.448z" stroke="#fff" stroke-opacity=".2" stroke-width="5"/></svg>

<svg width="549" height="683" viewBox="0 0 549 683" fill="none" xmlns="http://www.w3.org/2000/svg">
<path d="M133.654 184.563C134.97 170.352 151.827 163.607 162.582 172.988L250.309 249.506C253.736 252.495 257.988 254.375 262.505 254.9L361.368 266.373C376.009 268.072 382.12 286.003 371.564 296.29L303.543 362.573C299.859 366.162 297.517 370.905 296.905 376.012L282.542 495.937C280.8 510.482 263.027 516.578 252.725 506.163L171.177 423.722C167.159 419.66 161.746 417.278 156.036 417.061L56.4726 413.274C41.3244 412.698 34.0239 394.446 44.5963 383.582L117.104 309.076C120.693 305.388 122.909 300.582 123.384 295.459L133.654 184.563Z" stroke="white" stroke-opacity="0.3" stroke-width="5"/>
<path d="M162.533 237.342C163.097 231.251 170.322 228.361 174.931 232.381L235.089 284.852C236.992 286.512 239.355 287.557 241.864 287.848L310.923 295.863C317.198 296.591 319.817 304.276 315.292 308.684L267.484 355.271C265.438 357.266 264.136 359.901 263.796 362.738L253.923 445.176C253.177 451.41 245.559 454.022 241.144 449.559L184.826 392.623C182.594 390.367 179.586 389.044 176.414 388.923L106.256 386.255C99.7634 386.008 96.6346 378.185 101.166 373.529L151.967 321.328C153.961 319.279 155.192 316.609 155.456 313.763L162.533 237.342Z" stroke="white" stroke-opacity="0.6" stroke-width="5"/>
<path d="M115.186 135.03C116.502 120.82 133.36 114.075 144.115 123.456L262.57 226.775C265.997 229.764 270.249 231.644 274.766 232.169L410.642 247.938C425.284 249.637 431.395 267.568 420.838 277.855L326.796 369.494C323.113 373.083 320.77 377.826 320.159 382.933L300.72 545.244C298.978 559.789 281.204 565.885 270.902 555.47L160.04 443.393C156.022 439.331 150.609 436.95 144.899 436.733L6.90787 431.484C-8.24026 430.908 -15.5408 412.656 -4.96836 401.792L94.9739 299.096C98.5626 295.408 100.779 290.602 101.253 285.478L115.186 135.03Z" stroke="white" stroke-opacity="0.2" stroke-width="5"/>
</svg>
